X:9
T:Nail That Catfish to a Tree
R:Reel
C:Steve Rosen
M:4/4
L:1/8
K:G
DE|"G"B2 B2 A2 B2|cB A2 B4|"D"ABAG FDAB|A2 F2 (3EFE D2|
"G"B2 B2 A2 B2|cB A2 B4|"D"ABAG FDEF|"G"G6:|
D2|:"C"C4 E4|c6 B2|"D"ABAG FDAB|A2 F2 (3EFE D2|
"C"C4 E4|c6 B2|1"D"ABAG FDEF|"G"G6 D2:|2"D"d2 c2 B2 A2|"G"G2 z2 G2|]
